Images/skills-img-10.svg

<svg width="42" height="98" viewBox="0 0 42 98" fill="none" xmlns="http://www.w3.org/2000/svg">
<path d="M41.0675 39.0626C36.1831 16.4383 25.9894 10.4137 23.4027 6.15511C21.9969 3.8385 20.5634 0.317871 20.5634 0.317871C20.4232 2.32456 20.1747 3.59546 18.5437 5.12055C15.2775 8.1774 1.39713 20.0525 0.231228 45.7605C-0.856098 69.7292 17.0083 84.5118 19.3826 86.0392C21.1962 86.9756 23.4176 86.057 24.4794 85.1986C33.0888 78.9912 44.8668 62.4405 41.0569 39.0626" fill="#10AA50"/>
<path d="M21.3039 73.272C20.8558 79.2073 20.533 82.661 19.3926 86.0457C19.3926 86.0457 20.1444 91.6934 20.6668 97.6778H22.5293C22.9739 93.4629 23.6525 89.2789 24.5616 85.1471C22.1491 83.9052 21.3952 78.4782 21.3039 73.272Z" fill="#B8C4C2"/>
<path d="M24.5594 85.1514C22.1215 83.9697 21.4164 78.4335 21.3081 73.2718C21.9088 64.7618 22.0824 56.2246 21.8284 47.6955C21.701 43.2205 21.8921 6.24173 20.7793 0.828125C21.2295 1.88721 22.3168 4.37551 23.4042 6.15254C26.0014 10.4134 36.1866 16.4379 41.0668 39.0645C44.8703 62.3822 33.1625 78.9039 24.5594 85.1514Z" fill="#12924F"/>
</svg>

<svg xmlns="http://www.w3.org/2000/svg" width="42" height="98" fill="none" xmlns:v="https://vecta.io/nano"><path d="M41.068 39.063C36.183 16.438 25.989 10.414 23.403 6.155 21.997 3.839 20.563.318 20.563.318c-.14 2.007-.389 3.278-2.02 4.803C15.278 8.177 1.397 20.053.231 45.761-.856 69.729 17.008 84.512 19.383 86.039c1.814.936 4.035.018 5.097-.841 8.609-6.207 20.387-22.758 16.578-46.136" fill="#10aa50"/><path d="M21.304 73.272c-.448 5.935-.771 9.389-1.911 12.774 0 0 .752 5.648 1.274 11.632h1.863a113.94 113.94 0 0 1 2.032-12.531c-2.412-1.242-3.166-6.669-3.258-11.875z" fill="#b8c4c2"/><path d="M24.559 85.151c-2.438-1.182-3.143-6.718-3.251-11.88a255.32 255.32 0 0 0 .52-25.576c-.127-4.475.064-41.454-1.049-46.867.45 1.059 1.538 3.547 2.625 5.324 2.597 4.261 12.782 10.285 17.663 32.912 3.803 23.318-7.904 39.839-16.507 46.087z" fill="#12924f"/></svg>
